Newaita-dark/actions/22/gnumeric-format-valign-center.svg

<svg height="22" viewBox="0 0 22 22" width="22" xmlns="http://www.w3.org/2000/svg"><g fill="#e0e0e0"><path d="m2.046875 12.894531h17.738281c.125 0 .226563-.101562.226563-.226562v-.445313c0-.125-.101563-.226562-.226563-.226562h-17.738281c-.125 0-.226563.101562-.226563.226562v.445313c0 .125.101563.226562.226563.226562zm0 0"/><path d="m2.046875 10.164062h17.738281c.125 0 .226563-.101562.226563-.226562v-.441406c0-.125-.101563-.226563-.226563-.226563h-17.738281c-.125 0-.226563.101563-.226563.226563v.441406c0 .125.101563.226562.226563.226562zm0 0"/><path d="m11.824219 18.363281h-1.820313v1.351563c0 .253906.203125.457031.457032.457031h.910156c.25 0 .453125-.203125.453125-.457031zm0 0"/><path d="m7.730469 18.363281h6.367187l-3.183594-4.546875zm0 0"/><path d="m11.824219 3.808594h-1.820313v-1.351563c0-.25.203125-.453125.457032-.453125h.910156c.25 0 .453125.203125.453125.453125zm0 0"/><path d="m7.730469 3.808594h6.367187l-3.183594 4.550781zm0 0"/></g></svg>

<?xml version="1.0" encoding="UTF-8"?>
<svg xmlns="http://www.w3.org/2000/svg" xmlns:xlink="http://www.w3.org/1999/xlink" width="22px" height="22px" viewBox="0 0 22 22" version="1.1">
<g id="surface1">
<path style=" stroke:none;fill-rule:nonzero;fill:rgb(87.843138%,87.843138%,87.843138%);fill-opacity:1;" d="M 2.046875 12.894531 L 19.785156 12.894531 C 19.910156 12.894531 20.011719 12.792969 20.011719 12.667969 L 20.011719 12.222656 C 20.011719 12.097656 19.910156 11.996094 19.785156 11.996094 L 2.046875 11.996094 C 1.921875 11.996094 1.820312 12.097656 1.820312 12.222656 L 1.820312 12.667969 C 1.820312 12.792969 1.921875 12.894531 2.046875 12.894531 Z M 2.046875 12.894531 "/>
<path style=" stroke:none;fill-rule:nonzero;fill:rgb(87.843138%,87.843138%,87.843138%);fill-opacity:1;" d="M 2.046875 10.164062 L 19.785156 10.164062 C 19.910156 10.164062 20.011719 10.0625 20.011719 9.9375 L 20.011719 9.496094 C 20.011719 9.371094 19.910156 9.269531 19.785156 9.269531 L 2.046875 9.269531 C 1.921875 9.269531 1.820312 9.371094 1.820312 9.496094 L 1.820312 9.9375 C 1.820312 10.0625 1.921875 10.164062 2.046875 10.164062 Z M 2.046875 10.164062 "/>
<path style=" stroke:none;fill-rule:nonzero;fill:rgb(87.843138%,87.843138%,87.843138%);fill-opacity:1;" d="M 11.824219 18.363281 L 10.003906 18.363281 L 10.003906 19.714844 C 10.003906 19.96875 10.207031 20.171875 10.460938 20.171875 L 11.371094 20.171875 C 11.621094 20.171875 11.824219 19.96875 11.824219 19.714844 Z M 11.824219 18.363281 "/>
<path style=" stroke:none;fill-rule:nonzero;fill:rgb(87.843138%,87.843138%,87.843138%);fill-opacity:1;" d="M 7.730469 18.363281 L 14.097656 18.363281 L 10.914062 13.816406 Z M 7.730469 18.363281 "/>
<path style=" stroke:none;fill-rule:nonzero;fill:rgb(87.843138%,87.843138%,87.843138%);fill-opacity:1;" d="M 11.824219 3.808594 L 10.003906 3.808594 L 10.003906 2.457031 C 10.003906 2.207031 10.207031 2.003906 10.460938 2.003906 L 11.371094 2.003906 C 11.621094 2.003906 11.824219 2.207031 11.824219 2.457031 Z M 11.824219 3.808594 "/>
<path style=" stroke:none;fill-rule:nonzero;fill:rgb(87.843138%,87.843138%,87.843138%);fill-opacity:1;" d="M 7.730469 3.808594 L 14.097656 3.808594 L 10.914062 8.359375 Z M 7.730469 3.808594 "/>
</g>
</svg>
